X:76
T: Der Jaeger auf koeniglicher Heide
N: Q0150B
O: Mitteleuropa, Deutschland (BRD) , Rheinland - Pfalz, Pruem,
N: Anhaengsel an der zweiten und letzten Zeile.
R: Ballade, Verfuehrung, verlorene Ehre; Kinder - Spiel
M: 6/8
L: 1/16
K: G
G2 | G2E2E2E2F2G2 | D6D4
G2 | F4E2D2D2FF | B4A2B2z2
A2 | G4F2E4C2 | D6C4
G2 | F4A2E2E2FF | G4G2G2z2

